icons/Checkmark.svg

<svg width="24" height="24" viewBox="0 0 24 24" fill="none" xmlns="http://www.w3.org/2000/svg">
<path fill-rule="evenodd" clip-rule="evenodd" d="M18.4435,6.39516c0.334,0.24495 0.4063,0.7143 0.1613,1.04832l-7.3333,10.00002c-0.1321,0.1801 -0.3376,0.292 -0.5605,0.3051c-0.223,0.0132 -0.4402,-0.0736 -0.5926,-0.2369l-4.66669,-5c-0.28262,-0.3028 -0.26626,-0.7774 0.03656,-1.0601c0.30281,-0.2826 0.7774,-0.2662 1.06003,0.0366l4.0489,4.3382l6.798,-9.26996c0.245,-0.33403 0.7143,-0.40624 1.0483,-0.16128z" fill="#002B51"/>
</svg>

<svg width="24" height="24" viewBox="0 0 24 24" fill="none" xmlns="http://www.w3.org/2000/svg">
<path fill-rule="evenodd" clip-rule="evenodd" d="M18.4435 6.39516C18.7775 6.64011 18.8498 7.10946 18.6048 7.44348L11.2715 17.4435C11.1394 17.6236 10.9339 17.7355 10.711 17.7486C10.488 17.7618 10.2708 17.675 10.1184 17.5117L5.45171 12.5117C5.16909 12.2089 5.18545 11.7343 5.48827 11.4516C5.79108 11.169 6.26567 11.1854 6.5483 11.4882L10.5972 15.8264L17.3952 6.55644C17.6402 6.22241 18.1095 6.1502 18.4435 6.39516Z" fill="#002B51"/>
</svg>
